svgs/jerboa_for_lemmy.svg

<svg width="192" height="192" viewBox="0 0 192 192" fill="none" xmlns="http://www.w3.org/2000/svg">
<path d="M142.254 75.9284L132.955 75.7653L120.857 55L149.625 70.8301C150.708 66.3072 155.12 66.6987 158.132 67.2645C164.469 68.4545 168.41 75.3493 172 80.7304C171.539 82.1172 170.8 83.3949 169.826 84.4847C168.853 85.5746 167.666 86.4534 166.34 87.0669C164.457 87.4334 162.51 87.291 160.7 86.6543C156.866 90.3542 149.367 90.3831 142.851 88.9302M161.514 100.108C166.207 95.7309 158.322 95.0209 154.173 95.2341C150.384 95.4284 143.156 100.313 140.701 101.076L133.287 93.5558" stroke="black" stroke-width="8" stroke-linecap="round" stroke-linejoin="round"/>
<path d="M136.654 96.9736L129.304 102.413" stroke="black" stroke-width="8" stroke-linecap="round" stroke-linejoin="round"/>
<path d="M124.492 91.5513C124.492 91.5513 134.317 102.926 126.154 112.788C117.991 122.65 98.6531 125.855 96.1526 134.578M96.1526 134.578H160.232C160.232 134.578 149.058 120.744 137.595 123.811C126.131 126.877 96.1526 134.578 96.1526 134.578Z" stroke="black" stroke-width="8" stroke-linecap="round" stroke-linejoin="round"/>
<path d="M97.869 131.489C97.869 131.489 101.271 125.533 96.0862 122.838C90.9015 120.143 82.3955 122.464 81.6356 116.38C80.8756 110.296 75.8855 89.9839 88.0492 71.6803C100.213 53.3766 130.15 70.9477 130.15 70.9477" stroke="black" stroke-width="8" stroke-linecap="round" stroke-linejoin="round"/>
<path d="M81.8595 117.404C81.8595 117.404 63.8143 136.287 41.2847 136.089C18.7551 135.891 12.9324 113.926 29.52 106.425C46.1075 98.9243 68.6397 91.7496 57.3517 81.2958C46.0637 70.842 24.2085 64.094 24.2085 64.094C24.2085 64.094 30.7386 79.7539 34.4125 80.0909C38.0864 80.4279 54.3481 78.7663 54.3481 78.7663" stroke="black" stroke-width="8" stroke-linecap="round" stroke-linejoin="round"/>
<mask id="path-6-inside-1_1_2" fill="white">
<path d="M157 81C158.657 81 160 79.6569 160 78C160 76.3431 158.657 75 157 75C155.343 75 154 76.3431 154 78C154 79.6569 155.343 81 157 81Z"/>
</mask>
<path d="M157 81C158.657 81 160 79.6569 160 78C160 76.3431 158.657 75 157 75C155.343 75 154 76.3431 154 78C154 79.6569 155.343 81 157 81Z" stroke="black" stroke-width="6" mask="url(#path-6-inside-1_1_2)"/>
</svg>

<svg width="192" height="192" viewBox="0 0 192 192" fill="none" xmlns="http://www.w3.org/2000/svg"><path d="m142.254 75.928-9.299-.163L120.857 55l28.768 15.83c1.083-4.523 5.495-4.131 8.507-3.566 6.337 1.19 10.278 8.085 13.868 13.466a10.695 10.695 0 0 1-5.66 6.337c-1.883.366-3.83.224-5.64-.413-3.834 3.7-11.333 3.73-17.849 2.276m18.663 11.178c4.693-4.377-3.192-5.087-7.341-4.874-3.789.194-11.017 5.079-13.472 5.842l-7.414-7.52M136.654 96.974l-7.35 5.439M124.492 91.551s9.825 11.375 1.662 21.237c-8.163 9.862-27.5 13.067-30.001 21.79m0 0h64.079s-11.174-13.834-22.637-10.767c-11.464 3.066-41.442 10.767-41.442 10.767Z" stroke="#000" stroke-width="8" stroke-linecap="round" stroke-linejoin="round"/><path d="M97.869 131.489s3.402-5.956-1.783-8.651c-5.184-2.695-13.69-.374-14.45-6.458-.76-6.084-5.75-26.396 6.413-44.7 12.164-18.303 42.101-.732 42.101-.732" stroke="#000" stroke-width="8" stroke-linecap="round" stroke-linejoin="round"/><path d="M81.86 117.404s-18.046 18.883-40.575 18.685c-22.53-.198-28.353-22.163-11.765-29.664 16.588-7.5 39.12-14.675 27.832-25.13-11.288-10.453-33.143-17.201-33.143-17.201s6.53 15.66 10.204 15.997c3.673.337 19.935-1.325 19.935-1.325" stroke="#000" stroke-width="8" stroke-linecap="round" stroke-linejoin="round"/><mask id="a" fill="#fff"><path d="M157 81a3 3 0 1 0 0-6 3 3 0 0 0 0 6Z"/></mask><path d="M157 81a3 3 0 1 0 0-6 3 3 0 0 0 0 6Z" stroke="#000" stroke-width="6" mask="url(#a)"/></svg>
